X:1
T:Io son rimaso
T:Luca Marenzio
T:Source : Il quinto libro delle Villanelle a tre voci---Venetia---Herede di G.Scotto---1587. Editor : André Vierendeels (06/06/17).
T:Notes : Original clefs : G2, C1, F3 Editorial accidentals above the staff Music collected by Attilio Gualtieri m10 in S 1 : original notes F EE ED.  Editorial suggestion : F AAED   
T:-natural
T:Io son rimaso
T:©
T:©
C:Luca Marenzio
Z:©
%%score [ 1 2 3 ]
L:1/8
Q:1/4=120
M:4/4
K:C
V:1 treble nm="Soprano 1" snm="S 1"
V:2 treble nm="Soprano 2" snm="S 2"
V:3 bass nm="Bass" snm="B"
V:1
 B8 | B3 A B2 ^c2 | d4 A2 d2- | dd d4 f2- | f2 e2 d4 | c8 :: z2 e4 d2- | dc c3 B B2- | BA A3 G G2 | %9
w: Io|son ri- ma- so|so- lo, pie-|* no d'as- san-|* ni'e duo-|lo,|po- scia|_ che m'è spar- ti-|* ta, quel- la lu-|
w: Io|vo per as- pri|cal- li, em-|* pren- do bos-|* ch'e val-|li,|de miei|_ fie- ri tor- men-|* ti che mo- vo-|
 F2 A2 A2 ed | c2 e2 e2 dc | B2 d2 d2 cB | A2 G2 A4 | G8 :| %14
w: ce da cui _ _|_ pren- de- * *|* va vi- * *||ta.|
w: no'a pie- tà l'A- *|* * ria'e _ _|_ li ven- * *||ti.|
V:2
 G8 | G3 A G2 G2 | ^F4 F4 | G3 G G2 A2- | A2 c2 B4 | c8 :: z2 c4 B2- | BA A3 G G2- | GF F3 E E2 | %9
w: Io|son ri- ma- so|so- lo,|pie- no d'as- san-|* ni'e duo-|lo,|po- scia|_ che m'è spa- ri-|* ta, quel- la lu-|
w: Con|gl'oc- chi'hu- mi- di'e|bas- si,|vo ra- do- pian-|* do'i pas-|si,|e'in ogn'|_ an- tro e o-|* gni spe- co sen-|
 D2 d2 d2 cB | A2 c2 c2 BA | G2 B2 B2 AG | ^F2 G4 F2 | G8 :| %14
w: ce da cui _ _|_ pren- de- * *|* va vi- * *||ta.|
w: to del pian- * *|* ger mio _ _|_ ri- so- * *|nar e- *|co.|
V:3
 G,8 | G,3 F, G,2 E,2 | D,4 D,4 | G,3 G, G,2 F,2- |"^-natural" F,2 C,2 G,4 | C,8 :: C4 G,3 G, | %7
w: Io|son ri- ma- so|so- lo,|pie- no d'as- san-|* ni'e duo-|lo,|po- scia che|
w: Co-|si vi- ver vo-|gl'i- o,|men- tre che voi|_ ben mi-|o,|sa- re- te'a-|
 A,3 A, E,3 E, | F,3 F, C,4 | D,4 D,4 | A,4 A,,4 | E,2 D,C, B,,2 C,2 | D,8 | G,8 :| %14
w: m'è spar- ri- ta,|quel- la lu-|ce da|cui pren-|de- * * * va|vi-|ta.|
w: me lon- ta- no,|sem- pre pian-|gen- do'e|so- spi-|ran- * * * do'in|va-|no.|

